X: 401
T: Zhishi qingnian chadui dao ancuen
%%abc-version 2.0
%%abcx-abcm2ps-target-version 5.9.1 (29 Sep 2008)
%%abc-creator hum2abc beta
%%abcx-conversion-date 2013/10/02 07:52:30
%%abc-edited-by Helmut Schaffrath
%%humdrum-veritas 341145767
%%humdrum-veritas-data 3331208426
%%continueall 1
%%barnumbers 0
L: 1/8
M: 2/4
K: Bb
d'd'2d' [I:setbarnb 1]| 
c'2c'2 | 
d' f' d' c' | 
b3c' | 
d'd'2d' | 
c' d' c' b | 
a c' a g | 
f4 | 
f3g | 
b2b d' | 
c'> d' c' f | 
g4 | 
c' bc'2 | 
d' f' a g | 
f d f g | 
b2a g | 
f g z d | 
c4 |]  



